src/categories-icons-sprite/categories/svg-cat-home-furniture.svg

<svg width="35" height="32" viewBox="0 0 35 32" fill="none" xmlns="http://www.w3.org/2000/svg">
<path class="p-E63950" d="M30.0664 11V25H4.06641V11C4.06641 9.06007 4.84641 7.26 6.24647 5.92007C7.48647 4.74 9.06641 4.1 10.7465 4.04007C11.8665 1.66007 14.2663 0 17.0664 0C19.8665 0 22.2663 1.66007 23.3863 4.04007C25.0664 4.1 26.6463 4.74 27.8863 5.92007C29.2864 7.26 30.0664 9.06007 30.0664 11Z" fill="#58ADE5"/>
<path class="p-AE2538" d="M30.0664 11V25H17.0664V0C19.8665 0 22.2663 1.66007 23.3863 4.04007C25.0664 4.1 26.6463 4.74 27.8863 5.92007C29.2864 7.26 30.0664 9.06007 30.0664 11Z" fill="#4D98CB"/>
<path class="p-7C8388" d="M6.06641 29H4.06641V32H6.06641V29Z" fill="#58ADE5"/>
<path class="p-465A61" d="M30.0664 29H28.0664V32H30.0664V29Z" fill="#4D98CB"/>
<path class="p-FFCEBF" d="M26.0664 23H8.06641C8.06641 19.14 11.2064 16 15.0664 16H19.0664C22.9264 16 26.0664 19.14 26.0664 23Z" fill="#B9DFFC"/>
<path class="p-FFB99C" d="M26.0664 23H17.0664V16H19.0664C22.9264 16 26.0664 19.14 26.0664 23Z" fill="#A1D1FD"/>
<path class="p-FF637B" d="M15.4805 8.99999L14.0664 7.58594L12.6523 8.99999L14.0664 10.4141L15.4805 8.99999Z" fill="#B9DFFC"/>
<path class="p-E63950" d="M21.4805 8.99999L20.0664 7.58594L18.6524 9L20.0664 10.4141L21.4805 8.99999Z" fill="#A1D1FD"/>
<path class="p-FF637B" d="M17.0665 3.57995L15.6465 5L17.0665 6.42005L18.4866 5L17.0665 3.57995Z" fill="#B9DFFC"/>
<path class="p-FF637B" d="M29.1333 14C26.3733 14 24.1333 16.24 24.1333 19V22.9225H10V19C10 16.24 7.76 14 5 14C2.24 14 0 16.24 0 19C0 20.62 0.800067 22.0601 2 22.98V30H32.1333V22.98C33.3333 22.0601 34.1333 20.62 34.1333 19C34.1333 16.24 31.8933 14 29.1333 14Z" fill="#5FBEFF"/>
<path class="p-E63950" d="M34.1331 19C34.1331 20.62 33.333 22.0601 32.1331 22.98V30H17.0664V22.9225H24.1331V19C24.1331 16.24 26.3731 14 29.1331 14C31.8931 14 34.1331 16.24 34.1331 19Z" fill="#65B3E7"/>
<path class="p-E63950" d="M6.06641 18H4.06641V20H6.06641V18Z" fill="#58ADE5"/>
<path class="p-AE2538" d="M30.0664 18H28.0664V20H30.0664V18Z" fill="#4D98CB"/>
<path class="p-E63950" d="M18.4865 5.00015L17.0664 6.42021V3.58008L18.4865 5.00015Z" fill="#A1D1FD"/>
</svg>

<svg width="35" height="32" fill="none" xmlns="http://www.w3.org/2000/svg"><path class="p-E63950" d="M30.066 11v14h-26V11c0-1.94.78-3.74 2.18-5.08a6.815 6.815 0 014.5-1.88c1.12-2.38 3.52-4.04 6.32-4.04 2.8 0 5.2 1.66 6.32 4.04 1.68.06 3.26.7 4.5 1.88a6.973 6.973 0 012.18 5.08z" fill="#58ADE5"/><path class="p-AE2538" d="M30.066 11v14h-13V0c2.8 0 5.2 1.66 6.32 4.04 1.68.06 3.26.7 4.5 1.88a6.973 6.973 0 012.18 5.08z" fill="#4D98CB"/><path class="p-7C8388" d="M6.066 29h-2v3h2v-3z" fill="#58ADE5"/><path class="p-465A61" d="M30.066 29h-2v3h2v-3z" fill="#4D98CB"/><path class="p-FFCEBF" d="M26.066 23h-18c0-3.86 3.14-7 7-7h4c3.86 0 7 3.14 7 7z" fill="#B9DFFC"/><path class="p-FFB99C" d="M26.066 23h-9v-7h2c3.86 0 7 3.14 7 7z" fill="#A1D1FD"/><path class="p-FF637B" d="M15.48 9l-1.414-1.414L12.652 9l1.414 1.414L15.48 9z" fill="#B9DFFC"/><path class="p-E63950" d="M21.48 9l-1.414-1.414L18.652 9l1.414 1.414L21.481 9z" fill="#A1D1FD"/><path class="p-FF637B" d="M17.067 3.58L15.647 5l1.42 1.42L18.486 5l-1.42-1.42z" fill="#B9DFFC"/><path class="p-FF637B" d="M29.133 14c-2.76 0-5 2.24-5 5v3.922H10V19c0-2.76-2.24-5-5-5s-5 2.24-5 5c0 1.62.8 3.06 2 3.98V30h30.133v-7.02c1.2-.92 2-2.36 2-3.98 0-2.76-2.24-5-5-5z" fill="#5FBEFF"/><path class="p-E63950" d="M34.133 19c0 1.62-.8 3.06-2 3.98V30H17.066v-7.078h7.067V19c0-2.76 2.24-5 5-5s5 2.24 5 5z" fill="#65B3E7"/><path class="p-E63950" d="M6.066 18h-2v2h2v-2z" fill="#58ADE5"/><path class="p-AE2538" d="M30.066 18h-2v2h2v-2z" fill="#4D98CB"/><path class="p-E63950" d="M18.486 5l-1.42 1.42V3.58L18.486 5z" fill="#A1D1FD"/></svg>
